**kern	**kern	**kern	**kern
*part4	*part3	*part2	*part1
*staff4	*staff3	*staff2	*staff1
*I"Cello	*I"Viola	*I"2nd Violin	*I"1st Violin
*clefF4	*clefC3	*clefG2	*clefG2
*k[b-e-]	*k[b-e-]	*k[b-e-]	*k[b-e-]
*B-:	*B-:	*B-:	*B-:
*M2/4	*M2/4	*M2/4	*M2/4
=1	=1	=1	=1
2r	(8B-L	(8..ddL	(8..ffL
.	8dJ	.	.
.	.	32ccJkk)	32ee-Jkk)
.	8f#XL	8b-'L	8dd'L
.	8gJ)	8b-'J	8dd'J
=2	=2	=2	=2
2r	(4.e-	(8b-L	(8ddL
.	.	8ccJ)	8ee-J)
.	.	4a	4cc
.	8f)	.	.
=3	=3	=3	=3
2r	(4d	(8b-L	(8b-L
.	.	8a-XJ)	8bnJ)
.	8e-L)	(8..gL	16.ccLL
.	.	.	32ddk
.	8cJ	.	16.ee-
.	.	32ee-Jkk)	32ggJJk
=4	=4	=4	=4
2r	(4f	(4b-	(4dd
.	8F)	8an)	16ccLL)
.	.	.	(16dd
.	8r	8r	16ee-
.	.	.	16eenJJ)
=5	=5	=5	=5
(8BB-L	2r	(8..ddL	(8..ffL
8DJ	.	.	.
.	.	32ccJkk)	32ee-Jkk)
8F#XL	.	8b-'L	8dd'L
8GJ)	.	8b-'J	8dd'J
=6	=6	=6	=6
(8EnL	4r	(8..b-L	(8..ggL
8GJ	.	.	.
.	.	32aJkk)	32ffJkk)
8B-L)	8r	8g'L	8een'L
(8c#XJ	(8b-	(8gJ	(8eeJ
=7	=7	=7	=7
8dL)	8a)	8fL)	8ffL)
8d-X'J	4f	8a-X'J	8bn'J
8c'L	.	8an'L	8cc'L
8C'J	8B-'	8g'J	8en'J
=8	=8	=8	=8
8F'L	(4B-	(4en	(4g
8C'J	.	.	.
8FF'	8A)	8f)	8f)
8r	8r	8r	8r
=9:|!	=9:|!	=9:|!	=9:|!
2r	(8..BnL	(8..dL	(8gL
.	.	.	8qb-/
.	.	.	16a-XL
.	.	.	16gJJ)
.	32cJkk)	32e-Jkk)	.
.	8d'L	8f'L	8g'L
.	8d'J	8f'J	8g'J
=10	=10	=10	=10
(8..CL	(4d	(4f	(8gL
.	.	.	8bnJ
32DJkk)	.	.	.
8E-'L	4c)	4e-)	8ccL
8E-'J	.	.	8ccJ)
=11	=11	=11	=11
(8FL	(4.c	(8a-XL	(8..ddL
8GJ	.	8gJ	.
.	.	.	32ee-Jkk)
8A-XL	.	8fL)	8ff'L
8GJ)	8d)	8f'J	8bn'J
=12	=12	=12	=12
8C'L	(4Bn	(4f	(4dd
8GG'J	.	.	.
8CC'	8cL)	8e-L)	8ccL)
8f'	8a-X'J	8bn'J	8dd'J
=13	=13	=13	=13
(8e-L	(8gL	(8..ccL	(8..ee-L
8dJ	8fJ	.	.
.	.	32ddJkk)	32ffJkk)
8cL)	8e-L)	8ee-'L	8gg'L
8e-'J	8g-X'J	8a'J	8cc'J
=14	=14	=14	=14
(8dL	(8fL	(8..b-L	(8.ddL
8cJ	8e-J	.	.
.	.	.	32ee-Jkk)
.	.	32ccJkk)	8ffL
8B-L)	8dL)	8ddL	.
.	.	.	8bb-J
8DJ	8FJ	8B-J	.
=15	=15	=15	=15
.	.	.	(8cL
(4E-	(2G	[2B-	.
.	.	.	8qe-/
.	.	.	16dL
.	.	.	16cJJ)
.	.	.	8c'L
4En)	.	.	.
.	.	.	8c'J
=16	=16	=16	=16
.	.	.	[4c
4F	4F)	8B-L]	.
.	.	(8G#XJ	.
.	.	.	16cLL]
4r	4r	8A)	.
.	.	.	16d
.	.	.	16e-
.	.	8r	.
.	.	.	16enJJ
=17	=17	=17	=17
.	.	.	4f
(8BB-L	(8..dL	(8..fL	.
8DJ	.	.	.
.	32cJkk)	32e-Jkk)	4r
8F#XL	8B-'L	8d'L	.
8GJ)	8B-'J	8d'J	.
=18	=18	=18	=18
.	.	.	2r
(4.E-	(8B-L	(8dL	.
.	8cJ)	8e-J)	.
.	4A	4c	.
8F)	.	.	.
=19	=19	=19	=19
.	.	.	(8..ffL
4D	(8B-L	(8..ddL	.
.	8dJ	.	.
.	.	.	32ee-Jkk)
.	.	32ccJkk)	8dd'L
4r	8f#XL	8b-'L	.
.	.	.	8dd'J
.	8gJ)	8b-'J	.
=20	=20	=20	=20
.	.	.	(8ddL
2r	(4.e-	(8b-L	.
.	.	.	8ee-J)
.	.	8ccJ)	.
.	.	.	4cc
.	.	4a	.
.	8f)	.	.
=21	=21	=21	=21
.	.	.	(8b-L
2r	(4d	(8b-L	.
.	.	.	8bnJ)
.	.	8a-XJ)	.
.	.	.	16.ccLL
.	8e-L)	(8..gL	.
.	.	.	32ddk
.	.	.	16.ee-
.	8c'J	.	.
.	.	.	32ggJJk
.	.	32ee-Jkk)	.
=22	=22	=22	=22
.	.	.	(4dd
2r	(4f	(4b-	.
.	.	.	16ccLL)
.	8F)	8a)	.
.	.	.	(16bn
.	.	.	16cc
.	8r	8r	.
.	.	.	16ddJJ)
=23	=23	=23	=23
.	.	.	(8..ee-L
(8AL	2F	(8..ccL	.
8cJ	.	.	.
.	.	.	32ddJkk)
.	.	32b-Jkk)	8ccL
8enL	.	8aL	.
.	.	.	8ccJ
8fJ)	.	8aJ	.
=24	=24	=24	=24
.	.	.	(8..ggL
(8AAL	(8CL	(8..ee-L	.
8CJ	8E-J	.	.
.	.	.	32ffJkk)
.	.	32ddJkk)	8ee-'L
8E-L	8G-XL	8cc'L	.
.	.	.	8ee-'J
8G-XJ)	8AJ)	8cc'J	.
=25	=25	=25	=25
.	.	.	(8ddL
(8GL	(8B-L	4.b-	.
.	.	.	8eenJ)
8G-XJ)	8d-XJ	.	.
.	.	.	8ff'L
4Fn	8dnL)	.	.
.	.	.	8a'J
.	8e-'J	8a	.
=26	=26	=26	=26
.	.	.	(4cc
8BB-'L	4e-	(4a	.
8F'J	.	.	.
.	.	.	8b-)
8B-	8d	8b-)	.
.	.	.	8r
8r	8r	8r	.
=27:|!|:	=27:|!|:	=27:|!|:	=27:|!|:
.	.	.	2r
*clefC4	*	*	*
(8..fL	(8..dL	2r	.
32e-Jkk)	32cJkk)	.	.
8d'L	8B-'L	.	.
8d'J	8B-'J	.	.
=28	=28	=28	=28
.	.	.	4r
(8dL	(8B-L	2r	.
8e-J)	8cJ)	.	.
.	.	.	(32aLLL
4c	4F	.	32b-
.	.	.	32a
.	.	.	32b-JJJ
.	.	.	32aLLL
.	.	.	32cc
.	.	.	32ee-
.	.	.	32aJJJ)
=29	=29	=29	=29
.	.	.	16b-KL
(8B-L	4D	2r	.
.	.	.	8bb-
8BnJ)	.	.	.
.	.	.	16aa-XJk
.	.	.	16.ggLL
16.cLL	4E-	.	.
.	.	.	32ffk
32dk	.	.	16.ee-
16.e-	.	.	.
.	.	.	32ccJJk
32gJJk	.	.	.
=30	=30	=30	=30
.	.	.	(4b-
(4d	8F'L	2r	.
.	8f'J	.	.
.	.	.	8a)
16cLL)	8F'	.	.
16d	.	.	.
.	.	.	8r
16e-	8r	.	.
16enJJ	.	.	.
=31	=31	=31	=31
.	.	.	(32b-LLL
(8..fL	(8..dL	2r	32a
.	.	.	32cc
.	.	.	32b-JJJ
.	.	.	32ddLLL
.	.	.	32cc
.	.	.	32ee-
.	.	.	32ddJJJ)
32e-Jkk)	32cJkk)	.	8ff'L
8d'L	8B-'L	.	.
.	.	.	8ff'J
8d'J	8B-'J	.	.
=32	=32	=32	=32
.	.	.	(32ffLLL
(8..gL	(8..b-L	2r	32een
.	.	.	32gg
.	.	.	32ffJJJ
.	.	.	32aaLLL
.	.	.	32gg
.	.	.	32bb-
.	.	.	32aaJJJ)
32fJkk)	32aJkk)	.	(16cccLL
8en'L	8g'L	.	.
.	.	.	16bb-)
.	.	.	16bb-'
8e'J	8c'J	.	.
.	.	.	16bb-'JJ
=33	=33	=33	=33
.	.	.	16bb-LL
(8fL	(8FL	8r	.
.	.	.	16aaJJ
.	.	.	16r
8BnJ	8D-XJ)	16r	.
.	.	.	16aa-X
.	.	16ff	.
.	.	.	16r
8cL	8C'L	16r	.
.	.	.	16ff
.	.	16a-X	.
.	.	.	16r
8enJ)	8C'J	16r	.
.	.	.	16een
.	.	16g	.
=34	=34	=34	=34
.	.	.	(4een
(4g	8F'L	(4b-	.
.	8BB-'J	.	.
.	.	.	8ff)
8f)	8F'	8a)	.
.	.	.	8r
8r	8r	8r	.
=35:|!|:	=35:|!|:	=35:|!|:	=35:|!|:
.	.	.	2r
*clefF4	*	*	*
(8GL	(8..B-L	(8..dL	.
8qB-/	.	.	.
16A-XL	.	.	.
16GJJ)	.	.	.
.	32cJkk)	32e-Jkk)	.
8G'L	8d'L	8f'L	.
8G'J	8d'J	8f'J	.
=36	=36	=36	=36
.	.	.	2r
(8GL	(8..CL	(8fL	.
8BnJ)	.	16a-XL	.
.	.	16gJJ)	.
.	32DJkk)	.	.
8c'L	8E-'L	8g'L	.
8c'J	8E-'J	8c'J	.
=37	=37	=37	=37
.	.	.	2r
(8dL	(8FL	(4.c	.
8e-J	8GJ	.	.
8fL	8A-XL	.	.
8BnJ)	8GJ)	8d)	.
=38	=38	=38	=38
.	.	.	4r
4d	8CL	4Bn	.
.	8G	.	.
.	.	.	8r
8cL	8c'	8c	.
.	.	.	8aa-X'
*clefC4	*	*	*
8d'J	8Bn'J	8ff'	.
=39	=39	=39	=39
.	.	.	(8ggL
8..e-L	(8..cL	(8ee-L	.
.	.	.	8ffJ
.	.	8ddJ	.
32fJkk	32dJkk)	.	8ee-L
8g'L	8e-'L	8ccL	.
.	.	.	8ggJ)
8c'J	8A'J	8ee-J)	.
=40	=40	=40	=40
.	.	.	(8ffL
(8..dL	(8..B-L	(8ddL	.
.	.	.	8ee-J
.	.	8ccJ	.
32e-Jkk)	32cJkk)	.	8ddL
8f'L	8d'L	8b-L	.
.	.	.	8bb-J)
*clefG2	*	*	*
8b-'J	8d'J	8fJ)	.
=41	=41	=41	=41
.	.	.	[2bb-
(8ccL	(4.e-	(2g	.
8qee-/	.	.	.
16ddL	.	.	.
16ccJJ)	.	.	.
8cc'L	.	.	.
8cc'J	8en)	.	.
=42	=42	=42	=42
.	.	.	(16bb-LL]
4cc	4f	4f)	.
.	.	.	16aa
.	.	.	16gg
.	.	.	16ffJJ)
.	.	.	(16eenLL
4r	4r	4r	.
.	.	.	16ff
.	.	.	16ee-X
.	.	.	16ccJJ)
=43	=43	=43	=43
.	.	.	4b-
*clefF4	*	*	*
(8..DL	(8..FL	(32B-LLL	.
.	.	32A	.
.	.	32c	.
.	.	32B-JJJ	.
.	.	32dLLL	.
.	.	32c	.
.	.	32e-	.
32CJkk)	32E-Jkk)	32dJJJ)	4r
8BB-'L	8D'L	8f'L	.
8BB-'J	8D'J	8f'J	.
=44	=44	=44	=44
.	.	.	2r
(8BB-L	(8DL	(16fLL	.
.	.	16en)	.
8CJ)	8E-J)	16e-X'	.
.	.	16e-'JJ	.
4FF	4C	(16e-LL	.
.	.	16c)	.
.	.	(16c	.
.	.	16AJJ)	.
=45	=45	=45	=45
.	.	.	(32b-LLL
*clefC4	*	*	*
(8..fL	(8..dL	4B-	32a
.	.	.	32cc
.	.	.	32b-JJJ
.	.	.	32ddLLL
.	.	.	32cc
.	.	.	32ee-
.	.	.	32ddJJJ)
32e-Jkk)	32cJkk)	.	8ffL
8d'L	8B-'L	4r	.
.	.	.	8ffJ
8d'J	8B-'J	.	.
=46	=46	=46	=46
.	.	.	(16ffLL
(8dL	(8B-L	2r	.
.	.	.	16een)
.	.	.	16ee-X
8e-J)	8cJ)	.	.
.	.	.	16ee-JJ
.	.	.	(16ee-LL
4c	4F	.	.
.	.	.	16cc)
.	.	.	(16cc
.	.	.	16aJJ)
=47	=47	=47	=47
.	.	.	16b-KL
(8B-L	(8B-L	2r	.
.	.	.	8ff
8BnJ)	8DJ)	.	.
.	.	.	16aa-XJk
.	.	.	16.ggLL
16.cLL	8E-'L	.	.
.	.	.	32ffk
32dk	.	.	16.ee-
16.e-	8E-'J	.	.
.	.	.	32ccJJk
32gJJk	.	.	.
=48	=48	=48	=48
.	.	.	(4b-
(4d	8FL	2r	.
.	8fJ	.	.
.	.	.	16aLL)
16cLL)	4F	.	.
.	.	.	(16g#X
(16Bn	.	.	.
.	.	.	16a
16c	.	.	.
.	.	.	16b-JJ)
16dJJ)	.	.	.
=49	=49	=49	=49
.	.	.	(32aLLL
(8..e-L	2F	(8..cL	32b-
.	.	.	32cc
.	.	.	32b-JJJ
.	.	.	32aLLL
.	.	.	32b-
.	.	.	32cc
.	.	.	32ddJJJ)
32dJkk)	.	32B-Jkk)	16ee-'LL
8c'L	.	8A'L	.
.	.	.	16ee-'
.	.	.	16ee-'
8c'J	.	8A'J	.
.	.	.	16ee-'JJ
=50	=50	=50	=50
.	.	.	(32ee-LLL
(8..gL	2F	(8..e-L	32dd
.	.	.	32cc
.	.	.	32bnJJJ
.	.	.	32ccLLL
.	.	.	32dd
.	.	.	32ee-
.	.	.	32ffJJJ)
32fJkk)	.	32dJkk)	(32ggLLL
8e-'L	.	8c'L	32ff
.	.	.	32ee-
.	.	.	32ddJJJ
.	.	.	32ee-LLL
8e-'J	.	8c'J	32ff
.	.	.	32gg
.	.	.	32aaJJJ)
=51	=51	=51	=51
.	.	.	(8bb-XL
(8dL	(8GL	4.B-	.
.	.	.	8dd-XJ
8enJ	8G-XJ)	.	.
.	.	.	12.ddnL)
8fL)	4F	.	.
.	.	.	24ee-L
8cJ	.	(16ALL	.
.	.	.	24cc
.	.	.	24aJJ
.	.	16aJJ)	.
=52	=52	=52	=52
.	.	.	(4cc
(4e-X	8B-'L	(4a	.
.	8F'J	.	.
.	.	.	8b-)
8d)	8B-'	8b-)	.
.	.	.	8r
8r	8r	8r	.
=53:|!	=53:|!	=53:|!	=53:|!
*	*	*	*k[b-e-a-d-g-]
*	*	*	*D-:
.	.	.	2f
*clefF4	*	*	*
*k[b-e-a-d-g-]	*k[b-e-a-d-g-]	*k[b-e-a-d-g-]	*
*D-:	*D-:	*D-:	*
(8BB-L	2d-	(8..ffL	.
8D-J	.	.	.
.	.	32dd-Jkk)	.
8FL	.	8b-L	.
8D-J)	.	8bb-J	.
=54	=54	=54	=54
.	.	.	[2g-
(8BB-L	[2e-	(8.bb-L	.
8E-J	.	.	.
.	.	32ggnLL	.
.	.	32ee-JJJ)	.
8G-L	.	8b-L	.
8E-J)	.	8bb-J	.
=55	=55	=55	=55
.	.	.	2g-_
(8BB-L	2e-_	(8..aa-L	.
8E-J	.	.	.
.	.	32cccJkk)	.
8G-L	.	8eee-L	.
8E-J)	.	8aanJ	.
=56	=56	=56	=56
.	.	.	(4g-]
(8BB-L	(4e-]	(4ccc	.
8AnJ	.	.	.
.	.	.	4f)
8B-L	4d-)	16bb-LL)	.
.	.	(16aan	.
8FJ)	.	16bb-	.
.	.	16cccJJ)	.
=57	=57	=57	=57
.	.	.	4f
(8BB-L	2d-	(8..ddd-L	.
8FJ	.	.	.
.	.	32bb-Jkk)	[4g-
8B-L	.	8gg-L	.
8BB-J)	.	8gg-J	.
=58	=58	=58	=58
.	.	.	8g-]
(8C-XL	(8A-L	(8..gg-L	.
.	.	.	4A-
8CnJ	8e-J)	.	.
.	.	32a-XJkk)	.
8D-L	4f	(8..ffL	.
.	.	.	[8d-
8FJ)	.	.	.
.	.	32a-Jkk)	.
=59	=59	=59	=59
.	.	.	8d-L]
(8G-L	(8e-L	8b-L	.
.	.	.	(8f-XJ
8GnJ	8d-J	8b-	.
.	.	.	8e-L)
.	.	8qdd-/	.
8A-L)	8g-L)	(8cc	.
.	.	.	8g-J
8A-'J	8e-'J	16b-L	.
.	.	16ccJJ)	.
=60	=60	=60	=60
.	.	.	(4g-
8D-'L	(4c	(4ee-	.
8AA-'J	.	.	.
.	.	.	8fn)
8DD-'	8d-)	8dd-)	.
.	.	.	8r
8r	8r	8r	.
=61:|!	=61:|!	=61:|!	=61:|!
.	.	.	2f
(8BB-L	2A-	(8..dd-L	.
8DnJ	.	.	.
.	.	32ffJkk)	.
8FL	.	(8aa-L	.
8B-J)	.	32gg-LL	.
.	.	32ff	.
.	.	32ee-	.
.	.	32ddnJJJ)	.
=62	=62	=62	=62
.	.	.	4.e-
(8BB-L	4.G-	(8ee-L	.
.	.	32qqff/LLL	.
.	.	32qqee-/	.
.	.	32qqddn/JJJ	.
8G-XJ	.	16.ee-L	.
.	.	32ffJJk	.
8E-)	.	8gg-L)	.
.	.	.	[8g-
8r	[8e-	8b-'J	.
=63	=63	=63	=63
.	.	.	(8g-L]
2r	(8e-L]	(8anL	.
.	.	.	8fJ)
.	8d-J)	8b-J)	.
.	.	.	(8..fL
.	8An'L	16.ccLL	.
.	.	32dd-k	.
.	8B-'J	16.ee-	.
.	.	.	32b-Jkk)
.	.	32dd-JJk	.
=64	=64	=64	=64
.	.	.	(4b-
2r	8F'L	(4dd-	.
.	8f'J	.	.
.	.	.	8an)
.	8F'L	8cc)	.
.	.	.	8r
.	8F'J	8r	.
=65	=65	=65	=65
.	.	.	(2f
(8D-L	[2B-	(8..ffL	.
8FJ	.	.	.
.	.	32dd-Jkk	.
8B-L	.	8b-L)	.
8D-J)	.	8bb-J	.
=66	=66	=66	=66
.	.	.	2g-)
(8E-L	4B-]	(8..bb-L	.
8G-J	.	.	.
.	.	32gg-Jkk)	.
8c-XL	[4c-X	8ee-'L	.
8E-J)	.	8ee-'J	.
=67	=67	=67	=67
.	.	.	(4a-
(4F	4c-]	(8.ddnL	.
.	.	32ffLL	.
.	.	32ee-JJJ)	4g-)
4G-)	4B-	8.ee-L	.
.	.	16gg-Jk	.
=68	=68	=68	=68
.	.	.	(4g-
4r	(4e-	(8.anL	.
.	.	32ccLL	.
.	.	32b-JJJ)	4f)
8r	4d-)	8b-'L	.
8BB-'	.	8dd-X'J	.
=69	=69	=69	=69
.	.	.	8g-'L
8E-'L	8e-'L	8cc'L	.
.	.	.	8g-'J
8E-'J	8e-'J	8cc'	.
.	.	.	8e-'L
.	.	(8qb-/	.
8F'L	8c'L	8an)	.
.	.	.	8e-'J
8F'J	8c'J	16gnL	.
.	.	16aJJ)	.
=70	=70	=70	=70
.	.	.	(4e-
8BB-'L	(4c	(4cc	.
8F'J	.	.	.
.	.	.	8d-)
8B-'	8B-)	8b-)	.
.	.	.	8r
8r	8r	8r	.
=71:|!|:	=71:|!|:	=71:|!|:	=71:|!|:
*	*	*	*k[b-e-]
*	*	*	*B-:
.	.	.	(8..ffL
*k[b-e-]	*k[b-e-]	*k[b-e-]	*
*B-:	*B-:	*B-:	*
2r	(8B-L	(8..ddL	.
.	8dJ	.	.
.	.	.	32ee-Jkk)
.	.	32ccJkk)	8dd'L
.	8f#XL	8b-'L	.
.	.	.	8dd'J
.	8gJ)	8b-'J	.
=72	=72	=72	=72
.	.	.	(8ddL
2r	(4.e-	(8b-L	.
.	.	.	8ee-J)
.	.	8ccJ)	.
.	.	.	4cc
.	.	4a	.
.	8f)	.	.
=73	=73	=73	=73
.	.	.	(8b-L
2r	(4d	(8b-L	.
.	.	.	8bnJ)
.	.	8a-XJ)	.
.	.	.	16.ccLL
.	8e-L)	(8..gL	.
.	.	.	32ddk
.	.	.	16.ee-
.	8cJ	.	.
.	.	.	32ggJJk
.	.	32ee-Jkk)	.
=74	=74	=74	=74
.	.	.	(4dd
2r	(4f	(4b-	.
.	.	.	16ccLL)
.	8F)	8an)	.
.	.	.	(16dd
.	.	.	16ee-
.	8r	8r	.
.	.	.	16eenJJ)
=75	=75	=75	=75
.	.	.	(8..ffL
(8BB-L	2r	(8..ddL	.
8DJ	.	.	.
.	.	.	32ee-Jkk)
.	.	32ccJkk)	8dd'L
8F#XL	.	8b-'L	.
.	.	.	8dd'J
8GJ)	.	8b-'J	.
=76	=76	=76	=76
.	.	.	(8..ggL
(8EnL	4r	(8..b-L	.
8GJ	.	.	.
.	.	.	32ffJkk)
.	.	32aJkk)	8een'L
8B-L)	8r	8g'L	.
.	.	.	(8eeJ
(8c#XJ	(8b-	(8gJ	.
=77	=77	=77	=77
.	.	.	8ffL)
8dL)	8a)	8fL)	.
.	.	.	8bn'J
8d-X'J	4f	8a-X'J	.
.	.	.	8cc'L
8c'L	.	8an'L	.
.	.	.	8en'J
8C'J	8B-	8g'J	.
=78	=78	=78	=78
.	.	.	(4g
8F'L	(4B-	(4en	.
8C'J	.	.	.
.	.	.	8f)
8FF'	8A)	8f)	.
.	.	.	8r
8r	8r	8r	.
=79	=79	=79	=79
.	.	.	(8..ffL
2r	24B-'LL	(8..ddL	.
.	24d'	.	.
.	24c'	.	.
.	24B-'	.	.
.	24d'	.	.
.	.	.	32ee-Jkk)
.	24e-'JJ	.	.
.	.	32ccJkk)	8dd'L
.	24f'LL	8b-'L	.
.	24a'	.	.
.	24f#X'	.	.
.	.	.	8dd'J
.	24g'	8b-'J	.
.	24f#'	.	.
.	24g'JJ	.	.
=80	=80	=80	=80
.	.	.	(8ddL
2r	24cLL	(8b-L	.
.	24e-	.	.
.	24d	.	.
.	.	.	8ee-J)
.	24c	8ccJ)	.
.	24d	.	.
.	24e-JJ	.	.
.	.	.	4cc
.	24fLL	4a	.
.	24en	.	.
.	24g	.	.
.	24f	.	.
.	24e-X	.	.
.	24cJJ	.	.
=81	=81	=81	=81
.	.	.	(8b-L
2r	24dLL	(8b-L	.
.	24f	.	.
.	24e-	.	.
.	.	.	8bnJ)
.	24d	8fJ)	.
.	24a-X	.	.
.	24dJJ	.	.
.	.	.	16.ccLL
.	24e-LL	(8..gL	.
.	24c	.	.
.	.	.	32ddk
.	24Bn	.	.
.	.	.	16.ee-
.	24c	.	.
.	24d	.	.
.	.	.	32ggJJk
.	24e-JJ	.	.
.	.	32ccJkk)	.
=82	=82	=82	=82
.	.	.	(4dd
2r	24fLL	(4b-	.
.	24en	.	.
.	24f	.	.
.	24F	.	.
.	24G	.	.
.	24EnJJ	.	.
.	.	.	16ccLL)
.	24FLL	8a)	.
.	.	.	(16dd
.	24e-X	.	.
.	24f	.	.
.	.	.	16ee-
.	24e-	8r	.
.	.	.	16eenJJ)
.	24d	.	.
.	24cJJ	.	.
=83	=83	=83	=83
.	.	.	(8..ffL
2r	24B-LL	(8..ddL	.
.	24d	.	.
.	24e-	.	.
.	24en	.	.
.	24f	.	.
.	.	.	32ee-Jkk)
.	24f#XJJ	.	.
.	.	32ccJkk)	8dd'L
.	24gLL	8b-'L	.
.	24f#	.	.
.	24g	.	.
.	.	.	8dd'J
.	24G	8b-'J	.
.	24A	.	.
.	24FJJ	.	.
=84	=84	=84	=84
.	.	.	(8..ggL
2r	24EnLL	(8..b-L	.
.	24F	.	.
.	24G	.	.
.	24A	.	.
.	24B-	.	.
.	.	.	32ffJkk)
.	24BnJJ	.	.
.	.	32aJkk)	8een'L
.	24cLL	8g'L	.
.	24C	.	.
.	24c	.	.
.	.	.	(8eeJ
.	24c#X	(8gJ	.
.	24C#X	.	.
.	24c#JJ	.	.
=85	=85	=85	=85
.	.	.	8ffL)
2r	24dLL	8fL)	.
.	24f	.	.
.	24g	.	.
.	.	.	8bnJ
.	24a-X	8dJ	.
.	24g	.	.
.	24fJJ	.	.
.	.	.	8ccL
.	24anLL	8cL	.
.	24f	.	.
.	24cn	.	.
.	.	.	8enJ
.	24B-	8GJ	.
.	24G	.	.
.	24CJJ	.	.
=86	=86	=86	=86
.	.	.	(4g
2r	24FLL	(4B-	.
.	24c	.	.
.	24Bn	.	.
.	24c	.	.
.	24d	.	.
.	24enJJ	.	.
.	.	.	8f)
.	4f	8A)	.
.	.	.	8r
.	.	8r	.
=87	=87	=87	=87
.	.	.	(8gL
24FF#XLL	(8..B-L	(8..dL	.
24GG	.	.	.
24GG	.	.	.
.	.	.	(8qb-/
.	.	.	16a-XL)
24GG	.	.	.
.	.	.	16gJJ)
24GG	.	.	.
24GGJJ	.	.	.
.	32cJkk)	32e-Jkk)	8g'L
24GGLL	8d'L	8f'L	.
24BBn	.	.	.
24D	.	.	.
.	.	.	8g'J
24G	8d'J	8f'J	.
24A	.	.	.
24BnJJ	.	.	.
=88	=88	=88	=88
.	.	.	(8gL
24cLL	(4d	(4f	.
24C	.	.	.
24BBn	.	.	.
.	.	.	8bnJ
24C	.	.	.
24E-	.	.	.
24DJJ	.	.	.
.	.	.	8ccL)
24E-LL	4c)	4e-)	.
24G	.	.	.
24Bn	.	.	.
.	.	.	8cc'J
24c	.	.	.
24G	.	.	.
24E-JJ	.	.	.
=89	=89	=89	=89
.	.	.	(8..ddL
24FLL	(4.c	(8a-XL	.
24c	.	.	.
24F	.	.	.
24G	.	8gJ	.
24c	.	.	.
.	.	.	32ee-Jkk)
24GJJ	.	.	.
.	.	.	8ff'L
24A-XLL	.	8fL)	.
24AA-X	.	.	.
24A-	.	.	.
.	.	.	8bn'J
24GG	8d)	8f'J	.
24G	.	.	.
24GGJJ	.	.	.
=90	=90	=90	=90
.	.	.	(4dd
24CCLL	(4Bn	(4f	.
24GG	.	.	.
24FF#X	.	.	.
24GG	.	.	.
24AA	.	.	.
24BBnJJ	.	.	.
.	.	.	8ccL)
8CL	8G)	8e-L)	.
.	.	.	8dd'J
8fn'J	8a-X'	8bn'J	.
=91	=91	=91	=91
.	.	.	(24ddLL
(8e-L	(8gL	(24bnLL	.
.	.	.	24ee-)
.	.	24cc)	.
.	.	.	24ff'
.	.	24cc'	.
.	.	.	(24ee-
8dJ	8fJ	(24cc	.
.	.	.	24ff)
.	.	24dd)	.
.	.	.	24ff'JJ
.	.	24dd'JJ	.
.	.	.	24ff'LL
8cL)	8e-XL)	24dd'LL	.
.	.	.	24gg'
.	.	24ee-'	.
.	.	.	24ff'
.	.	24dd'	.
.	.	.	24ee-'
8e-'J	8g-X'J	24cc'	.
.	.	.	24dd'
.	.	24b-X'	.
.	.	.	24cc'JJ
.	.	24a'JJ	.
=92	=92	=92	=92
.	.	.	(24ccLL
(8dL	(8fL	(24aLL	.
.	.	.	24dd)
.	.	24b-)	.
.	.	.	24dd'
.	.	24b-'	.
.	.	.	(24dd
8cJ	8e-J	(24b-	.
.	.	.	24ee-)
.	.	24cc)	.
.	.	.	24ff'JJ
.	.	24cc'JJ	.
.	.	.	(24ee-LL
8B-L)	8dL)	(24ccLL	.
.	.	.	24ff)
.	.	24dd)	.
.	.	.	24ff'
.	.	24dd'	.
.	.	.	(24ff'
8D'J	8F'J	(24dd'	.
.	.	.	24bb-)
.	.	24B-)	.
.	.	.	24bb-'JJ
.	.	24B-'JJ	.
=93	=93	=93	=93
.	.	.	24bb-'LL
4E-	2G	[2B-	.
.	.	.	24c'
.	.	.	24Bn'
.	.	.	24c'
.	.	.	24B'
.	.	.	24c'JJ
.	.	.	(24d-XLL
4En	.	.	.
.	.	.	24c)
.	.	.	24c'
.	.	.	(24B
.	.	.	24c)
.	.	.	24c'JJ
=94	=94	=94	=94
.	.	.	24c'LL
4F	4F	8B-L]	.
.	.	.	24en'
.	.	.	24g'
.	.	.	24b-'
.	.	8GJ	.
.	.	.	24g'
.	.	.	24e'JJ
.	.	.	4f
4r	4r	24A'LL	.
.	.	(24A	.
.	.	24B-	.
.	.	24c	.
.	.	24d	.
.	.	24e-JJ)	.
=95	=95	=95	=95
.	.	.	2r
24BB-'LL	(8..dL	(8..fL	.
24D'	.	.	.
24E-'	.	.	.
24En'	.	.	.
24F'	.	.	.
24F#X'JJ	.	.	.
.	32cJkk)	32e-Jkk)	.
24G'LL	8B-'L	8d'L	.
24A'	.	.	.
24F#'	.	.	.
24G'	8B-'J	8d'J	.
24F#'	.	.	.
24G'JJ	.	.	.
=96	=96	=96	=96
.	.	.	2r
24CLL	(8B-L	(8dL	.
24E-	.	.	.
24D	.	.	.
24C	8cJ)	8e-J)	.
24D	.	.	.
24E-JJ	.	.	.
24FLL	4A	4c	.
24En	.	.	.
24G	.	.	.
24F	.	.	.
24E-X	.	.	.
24DJJ	.	.	.
=97	=97	=97	=97
.	.	.	(8..ffL
4BB-	24B-'LL	(8..ddL	.
.	24d'	.	.
.	24e-'	.	.
.	24en'	.	.
.	24f'	.	.
.	.	.	32ee-Jkk)
.	24f#X'JJ	.	.
.	.	32ccJkk)	8dd'L
4r	24g'LL	8b-'L	.
.	24a'	.	.
.	24g'	.	.
.	.	.	8dd'J
.	24fn'	8b-'J	.
.	24e-X'	.	.
.	24f'JJ	.	.
=98	=98	=98	=98
.	.	.	(8ddL
2r	24cLL	(8b-L	.
.	24e-	.	.
.	24d	.	.
.	.	.	8ee-J)
.	24c	8ccJ)	.
.	24d	.	.
.	24e-JJ	.	.
.	.	.	4cc
.	24enLL	4a	.
.	24d	.	.
.	24f	.	.
.	24e-X	.	.
.	24d-X	.	.
.	24cJJ	.	.
=99	=99	=99	=99
.	.	.	(8b-L
2r	24dLL	(8b-L	.
.	24f	.	.
.	24e-	.	.
.	.	.	8bnJ)
.	24d	8a-XJ)	.
.	24f	.	.
.	24dJJ	.	.
.	.	.	16.ccLL
.	24e-LL	(8..gL	.
.	24c	.	.
.	.	.	32ddk
.	24Bn	.	.
.	.	.	16.ee-
.	24c	.	.
.	24d	.	.
.	.	.	32ggJJk
.	24e-JJ	.	.
.	.	32ee-Jkk)	.
=100	=100	=100	=100
.	.	.	(4dd
2r	24fLL	(4b-	.
.	24en	.	.
.	24f	.	.
.	24F	.	.
.	24G	.	.
.	24EnJJ	.	.
.	.	.	24ccLL)
.	4F	8a)	.
.	.	.	(24a
.	.	.	24b-
.	.	.	24bn
.	.	8r	.
.	.	.	24cc
.	.	.	24ddJJ)
=101	=101	=101	=101
.	.	.	(8..ee-L
24FFLL	4A	(8..ccL	.
24AA	.	.	.
24BB-	.	.	.
24C	.	.	.
24D	.	.	.
.	.	.	32ddJkk)
24EnJJ	.	.	.
.	.	32b-Jkk)	8ccL
24FLL	4r	8aL	.
24E	.	.	.
24F	.	.	.
.	.	.	8ccJ
24FF	.	8aJ	.
24F	.	.	.
24FFJJ	.	.	.
=102	=102	=102	=102
.	.	.	(8..ggL
24FFLL	24ALL	(8..ee-L	.
24AA	24c	.	.
24BB-	24d	.	.
24C	24e-	.	.
24D	24f	.	.
.	.	.	32ffJkk)
24EnJJ	24gJJ	.	.
.	.	32ddJkk)	8ee-'L
24FLL	24aLL	8cc'L	.
24E	24g#X	.	.
24F	24a	.	.
.	.	.	8ee-'J
24FF	24A	8cc'J	.
24F	24a	.	.
24FFJJ	24AJJ	.	.
=103	=103	=103	=103
.	.	.	8dd'L
24GGLL	8B-'L	4.b-	.
24G	.	.	.
24G	.	.	.
.	.	.	(8eenJ
24G-X	(8d-XJ	.	.
24GG-X	.	.	.
24GG-JJ	.	.	.
.	.	.	8ffL)
24GG-LL	8dnL)	.	.
24F	.	.	.
24F	.	.	.
.	.	.	8a'J
24FF	8c'J	8e-'	.
24F	.	.	.
24FJJ	.	.	.
=104	=104	=104	=104
.	.	.	4b-
2r	24B-LL	4d	.
.	24B-	.	.
.	24B-	.	.
.	24B-	.	.
.	24B-	.	.
.	24B-JJ	.	.
.	.	.	4r
.	24B-LL	4r	.
.	24B-	.	.
.	24B-	.	.
.	24B-	.	.
.	24B-	.	.
.	24B-JJ	.	.
=105	=105	=105	=105
.	.	.	(8..bb-L
2r	24B-LL	(8..ggL	.
.	24e-	.	.
.	24d	.	.
.	24e-	.	.
.	24g	.	.
.	.	.	32aa-XJkk)
.	24aJJ	.	.
.	.	32ffJkk)	8gg'L
.	24b-LL	8ee-'L	.
.	24b-	.	.
.	24b-	.	.
.	.	.	8gg'J
.	24b-	8ee-'J	.
.	24b-	.	.
.	24b-JJ	.	.
=106	=106	=106	=106
.	.	.	(8..ffL
2r	24B-LL	(8..ddL	.
.	24d	.	.
.	24e-	.	.
.	24f	.	.
.	24g	.	.
.	.	.	32ee-Jkk)
.	24aJJ	.	.
.	.	32cckk)	8dd'L
.	24b-LL	8b-'	.
.	24f	.	.
.	24d	.	.
.	.	.	8dd'J
.	24B-	8b-'J	.
.	24F	.	.
.	24DJJ	.	.
=107	=107	=107	=107
!!linebreak:original
.	.	.	24ccLL
!!linebreak:original
2r	8E-	8g	.
.	.	.	24gg
.	.	.	24ee-
.	.	.	24dd
.	8r	8r	.
.	.	.	24cc
.	.	.	24b-JJ
.	.	.	24aLL
.	8E-	8c 8e-	.
.	.	.	24g
.	.	.	24f
.	.	.	24e-
.	8r	8r	.
.	.	.	24d
.	.	.	24cJJ
=108	=108	=108	=108
.	.	.	24B-LL
2r	4B-	4B- 4d	.
.	.	.	24bb-
.	.	.	24bb-
.	.	.	24bb-
.	.	.	24bb-
.	.	.	24bb-JJ
.	.	.	24bb-LL
.	4r	4r	.
.	.	.	24bb-
.	.	.	24bb-
.	.	.	24bb-
.	.	.	24bb-
.	.	.	24bb-JJ
=109	=109	=109	=109
.	.	.	24bb-LL
24BB-LL	(8..b-L	(8..ggL	.
.	.	.	24bb-
24E-	.	.	.
.	.	.	24bb-
24D	.	.	.
.	.	.	24bb-
24E-	.	.	.
.	.	.	24bb-
24G	.	.	.
.	.	.	24bb-JJ
24AJJ	.	.	.
.	32aJkk)	32ffJkk)	24bb-LL
24B-LL	8g'L	8ee-'L	.
.	.	.	24bb-
24B-	.	.	.
.	.	.	24bb-
24B-	.	.	.
.	.	.	24bb-
24B-	8g'J	8ee-'J	.
.	.	.	24bb-
24B-	.	.	.
.	.	.	24bb-JJ
24B-JJ	.	.	.
=110	=110	=110	=110
.	.	.	24bb-LL
24BB-LL	8..fL	8..ddL	.
.	.	.	24bb-
24D	.	.	.
.	.	.	24bb-
24E-	.	.	.
.	.	.	24bb-
24F	.	.	.
.	.	.	24bb-
24G	.	.	.
.	.	.	24bb-JJ
24AJJ	.	.	.
.	32e-Jkk	32ccJkk	24bb-LL
24B-LL	8dL	8b-L	.
.	.	.	24bb-
24F	.	.	.
.	.	.	24bb-
24D	.	.	.
.	.	.	24bb-
24BB-	8dJ	8b-J	.
.	.	.	24bb-
24FF	.	.	.
.	.	.	24bb-JJ
24DDJJ	.	.	.
=111	=111	=111	=111
!!linebreak:original
.	.	.	24bb-LL
!!linebreak:original
8EE-	8g	8cc	.
.	.	.	24gg
.	.	.	24ee-
.	.	.	24dd
8r	8r	8r	.
.	.	.	24cc
.	.	.	24b-JJ
.	.	.	24aLL
8FF	8c	8e-	.
.	.	.	24g
.	.	.	24f
.	.	.	24e-
8r	8r	8r	.
.	.	.	24d
.	.	.	24cJJ
=112	=112	=112	=112
.	.	.	24B-LL
24BB-LL	24FLL	24dLL	.
.	.	.	24B-
24BB-	24F	24d	.
.	.	.	24B-
24BB-	24F	24d	.
.	.	.	24e-
24BB-	24G-X	24A	.
.	.	.	24e-
24BB-	24G-	24A	.
.	.	.	24e-JJ
24BB-JJ	24G-JJ	24AJJ	.
.	.	.	24dLL
24BB-LL	24FLL	24B-LL	.
.	.	.	24d
24BB-	24F	24B-	.
.	.	.	24d
24BB-	24F	24B-	.
.	.	.	24e-
24BB-	24G-	24A	.
.	.	.	24e-
24BB-	24G-	24A	.
.	.	.	24e-JJ
24BB-JJ	24G-JJ	24AJJ	.
=113	=113	=113	=113
.	.	.	16d
16BB-	16F	16B-	.
.	.	.	16r
16r	16r	16r	.
.	.	.	24e-LL
24BB-LL	24GLL	24ALL	.
.	.	.	24e-
24BB-	24G	24A	.
.	.	.	24e-JJ
24BB-JJ	24GJJ	24AJJ	.
.	.	.	24dLL
24BB-LL	24FLL	24B-LL	.
.	.	.	24d
24BB-	24F	24B-	.
.	.	.	24d
24BB-	24F	24B-	.
.	.	.	24e-
24BB-	24G	24A	.
.	.	.	24e-
24BB-	24G	24A	.
.	.	.	24e-JJ
24BB-JJ	24GJJ	24AJJ	.
=114	=114	=114	=114
.	.	.	8d
8BB-	8F	8B-	.
.	.	.	8r
8r	8r	8r	.
.	.	.	8d'
8BB-'	8F'	8B-'	.
.	.	.	16.r
16.r	16.r	16.r	.
.	.	.	32d'
32BB-'	32F'	32B-'	.
=115	=115	=115	=115
.	.	.	4d'
4BB-'	4F'	4B-'	.
.	.	.	4r
4r	4r	4r	.
=:|!	=:|!	=:|!	=:|!
*-	*-	*-	*-
!!!system-decoration: s1,s2,s3,s4
